packages/elvis-assets-icons/icons/svg/src/charging_battery.svg

<svg width="24" height="24" viewBox="0 0 24 24" fill="none" xmlns="http://www.w3.org/2000/svg">
<path fill-rule="evenodd" clip-rule="evenodd" d="M0.938073 6.53704C1.53835 5.93703 2.35234 5.59998 3.20107 5.59998H17.6C18.4487 5.59998 19.2626 5.93712 19.8627 6.53723C20.4629 7.13735 20.8 7.95128 20.8 8.79998H21.6C22.2365 8.79998 22.847 9.05283 23.2971 9.50292C23.7471 9.95301 24 10.5635 24 11.2V12.8C24 13.4365 23.7471 14.0469 23.2971 14.497C22.847 14.9471 22.2365 15.2 21.6 15.2H20.8C20.8 16.0487 20.4629 16.8626 19.8627 17.4627C19.2626 18.0628 18.4487 18.4 17.6 18.4H3.2C2.35131 18.4 1.53737 18.0628 0.937258 17.4627C0.337142 16.8626 0 16.0487 0 15.2V8.79998C0.000377083 7.95125 0.337798 7.13705 0.938073 6.53704ZM3.20107 7.19998C2.77656 7.19998 2.36943 7.36856 2.06919 7.66867C1.76904 7.96869 1.60028 8.3756 1.6 8.79998V15.2C1.6 15.6243 1.76857 16.0313 2.06863 16.3313C2.36869 16.6314 2.77565 16.8 3.2 16.8H17.6C18.0243 16.8 18.4313 16.6314 18.7314 16.3313C19.0314 16.0313 19.2 15.6243 19.2 15.2V14.4C19.2 13.9581 19.5582 13.6 20 13.6H21.6C21.8122 13.6 22.0157 13.5157 22.1657 13.3657C22.3157 13.2156 22.4 13.0121 22.4 12.8V11.2C22.4 10.9878 22.3157 10.7843 22.1657 10.6343C22.0157 10.4843 21.8122 10.4 21.6 10.4H20C19.5582 10.4 19.2 10.0418 19.2 9.59998V8.79998C19.2 8.37563 19.0314 7.96866 18.7314 7.66861C18.4313 7.36855 18.0243 7.19998 17.6 7.19998H3.20107Z" fill="black"/>
<path fill-rule="evenodd" clip-rule="evenodd" d="M5.60103 8.79993C6.04285 8.79993 6.40103 9.1581 6.40103 9.59993V14.3999C6.40103 14.8418 6.04285 15.1999 5.60103 15.1999C5.1592 15.1999 4.80103 14.8418 4.80103 14.3999V9.59993C4.80103 9.1581 5.1592 8.79993 5.60103 8.79993Z" fill="black"/>
<path fill-rule="evenodd" clip-rule="evenodd" d="M10.401 8.79993C10.8428 8.79993 11.201 9.1581 11.201 9.59993V14.3999C11.201 14.8418 10.8428 15.1999 10.401 15.1999C9.95919 15.1999 9.60101 14.8418 9.60101 14.3999V9.59993C9.60101 9.1581 9.95919 8.79993 10.401 8.79993Z" fill="black"/>
</svg>

<svg width="24" height="24" fill="none" xmlns="http://www.w3.org/2000/svg"><path fill-rule="evenodd" clip-rule="evenodd" d="M.938 6.537c.6-.6 1.414-.937 2.263-.937H17.6a3.2 3.2 0 013.2 3.2h.8a2.4 2.4 0 012.4 2.4v1.6a2.4 2.4 0 01-2.4 2.4h-.8a3.2 3.2 0 01-3.2 3.2H3.2A3.2 3.2 0 010 15.2V8.8c0-.849.338-1.663.938-2.263zm2.263.663A1.601 1.601 0 001.6 8.8v6.4a1.6 1.6 0 001.6 1.6h14.4a1.6 1.6 0 001.6-1.6v-.8a.8.8 0 01.8-.8h1.6a.8.8 0 00.8-.8v-1.6a.8.8 0 00-.8-.8H20a.8.8 0 01-.8-.8v-.8a1.6 1.6 0 00-1.6-1.6H3.201z" fill="#000"/><path fill-rule="evenodd" clip-rule="evenodd" d="M5.601 8.8a.8.8 0 01.8.8v4.8a.8.8 0 11-1.6 0V9.6a.8.8 0 01.8-.8zM10.401 8.8a.8.8 0 01.8.8v4.8a.8.8 0 11-1.6 0V9.6a.8.8 0 01.8-.8z" fill="#000"/></svg>
